X:320
T: KOMMT BRUEDER TRINKET FROH
N: F0552
O: Europa, Mitteleuropa, Deutschland
R: Studenten -, Trink - Lied
M: 2/4
L: 1/16
K: F
c2 | c3AB2G2 | F2A2G2
G2 | A3FA2=B2 | d4c2
c2 | c3AB2G2 | F2A2G2
G2 | A3FA2=B2 | d4c2
c2 | G3AG2c2 | G3AG2
G2 | A3GF2E2 | F2G2A2
A2 | B3Bc2c2 | d4z2
B2 | G3Gc2c2 | F2zCF2z
F | A2zAc2zc | f4z2

@@@ Tune index: 5751
